X: 12
T: Polonäs efter Abraham Hagholm (nr 146) i Dm
S: efter Abraham Hagholm
R: Polonäs
O: Östergötland
B: Abraham Hagholms notbok, nr 146
B: http://www.smus.se/earkiv/fmk/browselarge.php?lang=sw&katalogid=M+26&bildnr=00028
Z: Nils L
M: 3/4
L: 1/16
K: Dm
(ab)ag (fg)fe (de)fd | (ef)ed (cd)cB (AB)cA | d2dc d2e2 f2d2 | Aaga (ga)(ga) A4 | S
(ab)ag (fg)fe (de)fd | (ef)ed (cd)cB (AB)cA | d2dc d2e2 f2g2 | (af)ec d4 D4 ::
f2FE F2fe (fg)af | g2cB c2CB, C4 | g2cB c2gf (ga)bg | a2fe "_Da capo al segno" f2FE F4 S :|
(:musicend:)
(:music:)
